packages/core/src/svgs/tokens/mono/COPI.svg

<svg width="24" height="24" viewBox="0 0 24 24" fill="none" xmlns="http://www.w3.org/2000/svg">
<path d="M9.22187 13.1112C9.49965 17.2779 12.2441 19.9056 13.8996 20.5723C11.9552 21.4279 7.46631 21.1 7.46631 12.8556C7.46631 4.57227 12.4386 2.8556 15.0719 2.57227L17.6997 3.14449L19.7774 2.57227L20.333 3.14449C19.633 3.36671 18.5996 4.66672 18.1108 5.33338C17.4108 3.96116 15.7497 3.66672 15.0719 3.66672C11.8496 3.66672 8.87742 7.97228 9.22187 13.1112Z" fill="white"/>
<path d="M19.7781 2.57222C18.8725 2.83334 17.9948 3.90556 17.7004 4.57223C17.4304 4.11455 17.0427 3.73758 16.5777 3.48061C16.1126 3.22364 15.587 3.09605 15.056 3.11112C12.7003 3.11112 8.11145 6.53889 8.11145 12.8334C8.11145 19.0889 11.8392 20.6111 15.056 20.6111C17.0004 20.6111 18.1948 19.35 17.9948 18.5722C17.8948 18.1889 17.9392 17.4278 18.8725 17.4278C19.8058 17.4278 19.867 18 19.7504 18.5722C19.4558 20.0001 17.1948 22 13.3892 22C9.58923 22 6.58922 17.4278 5.71145 15.4278C5.01145 13.8278 4.05588 13.2388 3.66699 13.1445C4.13366 12.2277 5.22255 12.1888 5.71145 12.2833C5.59063 9.68155 6.50647 7.13789 8.25814 5.2102C10.0098 3.28253 12.4544 2.1281 15.056 2C16.2226 2 17.1171 2.38334 17.4115 2.57222C17.8143 2.21276 18.3327 2.00972 18.8725 2C19.2225 2 19.5003 2.27778 19.7781 2.57222Z" fill="white"/>
</svg>

<svg xmlns="http://www.w3.org/2000/svg" width="24" height="24" fill="none" viewBox="0 0 24 24">
    <path fill="#fff" d="M9.222 13.111c.278 4.167 3.022 6.795 4.678 7.461-1.945.856-6.434.528-6.434-7.716 0-8.284 4.973-10 7.606-10.284l2.628.572 2.077-.572.556.572c-.7.223-1.733 1.523-2.222 2.19-.7-1.373-2.361-1.667-3.04-1.667-3.221 0-6.194 4.305-5.85 9.444"/>
    <path fill="#fff" d="M19.778 2.572c-.905.261-1.783 1.334-2.078 2a2.97 2.97 0 0 0-2.644-1.46c-2.356 0-6.945 3.427-6.945 9.721 0 6.256 3.728 7.778 6.945 7.778 1.944 0 3.139-1.261 2.939-2.039-.1-.383-.056-1.144.877-1.144.934 0 .995.572.878 1.144C19.456 20 17.195 22 13.39 22c-3.8 0-6.8-4.572-7.679-6.572-.7-1.6-1.655-2.19-2.044-2.283.467-.917 1.556-.956 2.044-.862A9.84 9.84 0 0 1 15.056 2c1.167 0 2.061.383 2.356.572.402-.36.92-.562 1.46-.572.35 0 .628.278.906.572"/>
</svg>
